assets/img/braze_icons/link-04.svg

<svg fill="none" height="24" viewBox="0 0 24 24" width="24" xmlns="http://www.w3.org/2000/svg"><g clip-rule="evenodd" fill="#801ed7" fill-rule="evenodd"><path d="m7 8c-2.20914 0-4 1.79086-4 4 0 2.2091 1.79086 4 4 4h2c2.2091 0 4-1.7909 4-4 0-.5523.4477-1 1-1s1 .4477 1 1c0 3.3137-2.6863 6-6 6h-2c-3.31371 0-6-2.6863-6-6 0-3.31371 2.68629-6 6-6h.5c.55228 0 1 .44772 1 1 0 .55229-.44772 1-1 1z"/><path d="m17 8h-2c-2.2091 0-4 1.79086-4 4 0 .5523-.4477 1-1 1-.55228 0-1-.4477-1-1 0-3.31371 2.6863-6 6-6h2c3.3137 0 6 2.68629 6 6 0 3.3137-2.6863 6-6 6h-.5c-.5523 0-1-.4477-1-1s.4477-1 1-1h.5c2.2091 0 4-1.7909 4-4 0-2.20914-1.7909-4-4-4z"/></g></svg>

<svg width="24" height="24" viewBox="0 0 24 24" fill="none" xmlns="http://www.w3.org/2000/svg">
<path fill-rule="evenodd" clip-rule="evenodd" d="M7 8C4.79086 8 3 9.79086 3 12C3 14.2091 4.79086 16 7 16H9C11.2091 16 13 14.2091 13 12C13 11.4477 13.4477 11 14 11C14.5523 11 15 11.4477 15 12C15 15.3137 12.3137 18 9 18H7C3.68629 18 1 15.3137 1 12C1 8.68629 3.68629 6 7 6H7.5C8.05228 6 8.5 6.44772 8.5 7C8.5 7.55229 8.05228 8 7.5 8H7Z" fill="#801ED7"/>
<path fill-rule="evenodd" clip-rule="evenodd" d="M17 8L15 8C12.7909 8 11 9.79086 11 12C11 12.5523 10.5523 13 10 13C9.44772 13 9 12.5523 9 12C9 8.68629 11.6863 6 15 6L17 6C20.3137 6 23 8.68629 23 12C23 15.3137 20.3137 18 17 18H16.5C15.9477 18 15.5 17.5523 15.5 17C15.5 16.4477 15.9477 16 16.5 16H17C19.2091 16 21 14.2091 21 12C21 9.79086 19.2091 8 17 8Z" fill="#801ED7"/>
</svg>
